assets/Llama/Flat/llama_flat.svg

<svg width="32" height="32" viewBox="0 0 32 32" fill="none" xmlns="http://www.w3.org/2000/svg">
<path d="M20.871 24.78V18.72H23.881V24.49C23.881 24.83 23.761 25.11 23.571 25.43L21.161 29.63C20.981 29.86 20.711 30 20.411 30H19.381C19.151 30 19.001 29.76 19.101 29.55L20.771 25.2C20.841 25.07 20.871 24.93 20.871 24.78Z" fill="#B4ACBC"/>
<path d="M17.091 30C17.291 30 17.351 29.79 17.311 29.62L14.991 21.01H12.001L12.851 24.56C13.041 25.27 13.511 25.88 14.151 26.25C14.291 26.33 14.401 26.47 14.441 26.63L15.311 29.77C15.351 29.94 15.521 29.99 15.691 29.99L17.091 30Z" fill="#B4ACBC"/>
<path d="M28.5413 23.08L27.2713 22.12C27.1013 21.95 27.0013 21.71 27.0013 21.46V18.71C27.0013 18.0707 26.841 17.4724 26.5586 16.9508C26.701 16.983 26.8491 17 27.0013 17C28.1058 17 29.0013 16.1046 29.0013 15C29.0013 13.8954 28.1058 13 27.0013 13C25.8967 13 25.0013 13.8954 25.0013 15C25.0013 15.1551 25.0189 15.3061 25.0524 15.4511C24.5177 15.163 23.9039 15 23.2513 15H15.0813C14.4213 15 13.8113 14.58 13.5113 13.99L10.0413 3.5C9.73127 2.61 8.89127 2 7.94127 2C7.76127 2 7.64127 2.17 7.70127 2.34L8.57127 5C8.37127 5 7.50127 5.23 6.72127 5.73L5.9165 6.22782L7.00127 10V18.26C7.00127 20.27 8.25127 21.98 10.0113 22.67V29.69C10.0013 29.86 10.1413 30 10.3113 30H11.6813C11.8613 30 12.0013 29.86 12.0013 29.69V27.73C12.0013 27.56 12.0713 27.41 12.1813 27.29C12.7113 26.77 13.0013 26.06 13.0013 25.32V23H18.0713C19.3413 23 20.5613 22.45 21.4013 21.5C21.4013 22.44 21.8813 23.22 22.7813 23.82L26.7413 26.25C26.9013 26.36 27.0013 26.55 27.0013 26.75V29.68C27.0013 29.85 27.1413 29.99 27.3113 29.99H28.6813C28.8513 29.99 28.9913 29.85 28.9913 29.68V24.17C29.0013 23.77 28.8413 23.37 28.5413 23.08Z" fill="#CDC4D6"/>
<path d="M6.84111 6C6.48111 6 6.12111 6.1 5.81111 6.29L3.62111 7.64C3.26111 7.87 3.02111 8.25 3.00111 8.67C2.97111 9.4 3.55111 10 4.27111 10H7.76111C8.33111 10 8.80111 9.53 8.80111 8.95V7.95C8.80111 6.88 7.92111 6 6.84111 6Z" fill="#F3AD61"/>
<path d="M6.5 8C6.77614 8 7 7.77614 7 7.5C7 7.22386 6.77614 7 6.5 7C6.22386 7 6 7.22386 6 7.5C6 7.77614 6.22386 8 6.5 8Z" fill="#1C1C1C"/>
<path d="M4.50098 8.5C4.50098 8.22 4.28098 8 4.00098 8H3.24098C3.08098 8.21 3.00098 8.47 3.00098 8.73C3.00098 8.83 3.01098 8.91 3.03098 9H4.00098C4.28098 9 4.50098 8.78 4.50098 8.5Z" fill="#1C1C1C"/>
<path d="M28.9912 28H27.0012V29.68C27.0012 29.85 27.1412 29.99 27.3112 29.99H28.6812C28.8512 29.99 28.9912 29.85 28.9912 29.68V28Z" fill="#F3AD61"/>
<path d="M12.0012 28H10.0112V29.69C10.0012 29.86 10.1412 30 10.3112 30H11.6812C11.8612 30 12.0012 29.86 12.0012 29.69V28Z" fill="#F3AD61"/>
<path d="M17.0885 30L15.6912 29.99C15.5212 29.99 15.3512 29.94 15.3112 29.77L14.8208 28H16.8747L17.3112 29.62C17.351 29.7891 17.2919 29.9977 17.0945 30H17.0885Z" fill="#F3AD61"/>
<path d="M19.3766 30C19.1492 29.9968 19.0019 29.7586 19.1012 29.55L19.6963 28H22.0965L21.1612 29.63C20.9828 29.858 20.716 29.9976 20.4191 30H19.3766Z" fill="#F3AD61"/>
</svg>

<svg xmlns="http://www.w3.org/2000/svg" width="32" height="32" fill="none"><path fill="#B4ACBC" d="M20.871 24.78v-6.06h3.01v5.77c0 .34-.12.62-.31.94l-2.41 4.2c-.18.23-.45.37-.75.37h-1.03c-.23 0-.38-.24-.28-.45l1.67-4.35c.07-.13.1-.27.1-.42ZM17.091 30c.2 0 .26-.21.22-.38l-2.32-8.61h-2.99l.85 3.55c.19.71.66 1.32 1.3 1.69.14.08.25.22.29.38l.87 3.14c.04.17.21.22.38.22l1.4.01Z"/><path fill="#CDC4D6" d="m28.541 23.08-1.27-.96a.938.938 0 0 1-.27-.66v-2.75c0-.64-.16-1.238-.442-1.76a2 2 0 1 0-1.506-1.5 3.786 3.786 0 0 0-1.802-.45h-8.17c-.66 0-1.27-.42-1.57-1.01L10.041 3.5a2.23 2.23 0 0 0-2.1-1.5c-.18 0-.3.17-.24.34L8.571 5c-.2 0-1.07.23-1.85.73l-.804.498L7 10v8.26c0 2.01 1.25 3.72 3.01 4.41v7.02c-.01.17.13.31.3.31h1.37c.18 0 .32-.14.32-.31v-1.96c0-.17.07-.32.18-.44.53-.52.82-1.23.82-1.97V23h5.07c1.27 0 2.49-.55 3.33-1.5 0 .94.48 1.72 1.38 2.32l3.96 2.43c.16.11.26.3.26.5v2.93c0 .17.14.31.31.31h1.37c.17 0 .31-.14.31-.31v-5.51c.01-.4-.15-.8-.45-1.09Z"/><path fill="#F3AD61" d="M6.841 6c-.36 0-.72.1-1.03.29l-2.19 1.35c-.36.23-.6.61-.62 1.03-.03.73.55 1.33 1.27 1.33h3.49c.57 0 1.04-.47 1.04-1.05v-1c0-1.07-.88-1.95-1.96-1.95Z"/><path fill="#1C1C1C" d="M6.5 8a.5.5 0 1 0 0-1 .5.5 0 0 0 0 1ZM4.501 8.5c0-.28-.22-.5-.5-.5h-.76a1.206 1.206 0 0 0-.21 1h.97c.28 0 .5-.22.5-.5Z"/><path fill="#F3AD61" d="M28.991 28h-1.99v1.68c0 .17.14.31.31.31h1.37c.17 0 .31-.14.31-.31V28ZM12.001 28h-1.99v1.69c-.01.17.13.31.3.31h1.37c.18 0 .32-.14.32-.31V28ZM17.088 30l-1.397-.01c-.17 0-.34-.05-.38-.22l-.49-1.77h2.054l.436 1.62c.04.17-.02.378-.216.38h-.006ZM19.377 30a.313.313 0 0 1-.276-.45l.595-1.55h2.4l-.935 1.63a.947.947 0 0 1-.742.37h-1.042Z"/></svg>
